public/svg/team.svg

<svg xmlns="http://www.w3.org/2000/svg" viewBox="0 0 36 36" fill="none">
<path opacity="0.3" fill-rule="evenodd" clip-rule="evenodd" d="M7.29199 10.2083C7.29199 13.43 9.90366 16.0417 13.1253 16.0417C16.347 16.0417 18.9587 13.43 18.9587 10.2083C18.9587 6.98667 16.347 4.375 13.1253 4.375C9.90366 4.375 7.29199 6.98667 7.29199 10.2083ZM21.8751 16.0417C21.8751 18.4579 23.8338 20.4167 26.2501 20.4167C28.6663 20.4167 30.6251 18.4579 30.6251 16.0417C30.6251 13.6255 28.6663 11.6667 26.2501 11.6667C23.8338 11.6667 21.8751 13.6255 21.8751 16.0417Z" fill="#1B5BF7"/>
<path fill-rule="evenodd" clip-rule="evenodd" d="M13.1007 18.9583C6.21529 18.9583 0.56621 22.497 0.000950373 29.4572C-0.0298401 29.8363 0.695205 30.625 1.06094 30.625H25.1514C26.247 30.625 26.264 29.7434 26.247 29.4583C25.8196 22.3026 20.083 18.9583 13.1007 18.9583ZM28.5829 30.625C28.5829 27.3424 27.4983 24.3131 25.668 21.8759C30.6358 21.9302 34.6922 24.4418 34.9975 29.75C35.0098 29.9638 34.9975 30.625 34.2062 30.625H28.5829Z" fill="#1B5BF7"/>
</svg>

<svg xmlns="http://www.w3.org/2000/svg" viewBox="0 0 36 36" fill="#1b5bf7" fill-rule="evenodd" xmlns:v="https://vecta.io/nano"><path opacity=".3" d="M7.292 10.208c0 3.222 2.612 5.833 5.833 5.833s5.833-2.612 5.833-5.833-2.612-5.833-5.833-5.833-5.833 2.612-5.833 5.833zm14.583 5.833c0 2.416 1.959 4.375 4.375 4.375s4.375-1.959 4.375-4.375-1.959-4.375-4.375-4.375-4.375 1.959-4.375 4.375z"/><path d="M13.101 18.958c-6.885 0-12.534 3.539-13.1 10.499-.031.379.694 1.168 1.06 1.168h24.09c1.096 0 1.113-.882 1.096-1.167-.427-7.156-6.164-10.5-13.146-10.5zm15.482 11.667a14.52 14.52 0 0 0-2.915-8.749c4.968.054 9.024 2.566 9.33 7.874.012.214 0 .875-.791.875h-5.623z"/></svg>
